svgs/sharp-regular/calendar-users.svg

<svg xmlns="http://www.w3.org/2000/svg" viewBox="0 0 640 512"><!--! Font Awesome Pro 6.6.0 by @fontawesome - https://fontawesome.com License - https://fontawesome.com/license (Commercial License) Copyright 2024 Fonticons, Inc. --><path d="M248 0l0 24 0 40 144 0 0-40 0-24 48 0 0 24 0 40 104 0 0 80 0 48-16 0-32 0-16 0-320 0-16 0-32 0-16 0 0-48 0-80 104 0 0-40 0-24 48 0zm12.8 512L244 464l152 0-16.8 48-118.4 0zM112 224a80 80 0 1 1 0 160 80 80 0 1 1 0-160zM224 512L0 512l32-96 160 0 32 96zM448 304a80 80 0 1 1 160 0 80 80 0 1 1 -160 0zM608 416l32 96-224 0 32-96 160 0z"/></svg>

<svg xmlns="http://www.w3.org/2000/svg" viewBox="0 0 640 512"><!--! Font Awesome Pro 6.4.2 by @fontawesome - https://fontawesome.com License - https://fontawesome.com/license (Commercial License) Copyright 2023 Fonticons, Inc. --><path d="M248 0V24 64H392V24 0h48V24 64H544v80 48H528 496 480 160 144 112 96V144 64H200V24 0h48zm12.8 512L244 464H396l-16.8 48H260.8zM112 224a80 80 0 1 1 0 160 80 80 0 1 1 0-160zM224 512H0l32-96H192l32 96zM448 304a80 80 0 1 1 160 0 80 80 0 1 1 -160 0zM608 416l32 96H416l32-96H608z"/></svg>
